X:1
T:Divini occhi sereni
T:Philippe Verdelot
T:Source : Publikation älterer praktischer und theoretischer Musik-Werke---R.Eitner---Berlin--- L.Liepmanssohn und M.Bahn---1874. First publication : Primo libro de madrigali---Venetia---A.Antico---1533. Editor : André Vierendeels (16/11/17). Notes : Original clefs : C2, C3, C4, F4 Original note values have been halved Editorial accidentals above the staff Text : P.Aretino
T:Divini occhi sereni
T:©
T:©
T:©
C:Philippe Verdelot
Z:©
%%score [ 1 [ 2 3 ] 4 ]
L:1/8
Q:1/4=120
M:2/2
K:C
V:1 treble nm="Alto" snm="A"
V:2 treble-8 nm="Tenor 1" snm="T 1"
V:3 treble-8 nm="Tenor 2" snm="T 2"
V:4 bass nm="Bass" snm="B"
V:1
 A8 | A8 | A4 z2 A2 | G4 G4 | F4 F4 | z2 F2 F2 E2 | F2 G2 E4 | F4 E2 D2- | DC/B,/ C2 D4 | %9
w: Di-|vi-|ni oc-|chi se-|re- ni,|oc- chi sem-|pre di gra-|tia'e d'a- mor|_ _ _ pie- ni,|
 z2 A4 F2 | D2 G4 F2 | E2 G2 F2 E2- | ED D3 C/B,/ C2 | D4 z2 A2 | _B2 A2 A2 G2 | A2 A2 _B4- | %16
w: oc- chi|sem- pre di|gra- tia'e d'a- mor|_ _ _ _ _ pie-|ni, per-|do- nin gli al-|tri'oc- chi vo-|
 B4 A2 G2 | G2 F2 G4 | F4 z2 F2 | F2 F2 F2 F2 | G4 A4 | G2 F2 G4 | A4 z2 A2 | c4 B2 A2- | %24
w: * stro sol|e splen- do-|re, e|se que- sta pa-|ro- la|par che toc-|chi al|sol il ver'|
 A2 G2 A2 A2 | z2 E2 G2 G2 | D2 D2 FEFG | A8 | G4 z2 A2 | A2 A2 A2 G2 | A3 G F2 E2- | ED D4 C2 | %32
w: _ ho- no- re,|fac- ci'e- gli|chiar' a no- * * *||i gior-|no la not- te,|co- me fa- te|_ _ _ vo-|
 D8- | D8- | D8- | D8 |] %36
w: i?|_|||
V:2
 d4 f4- | f2 ed e4 | f4 z2 f2 | d4 e4 | d4 d4 | z2 d2 d2 c2 | d2 B2 c4 | A4 B2 B2 | A2 A2 z2 A2- | %9
w: Di- vi-||ni oc-|chi se-|re- ni,|oc- chi sem-|pre di ga-|tia'e d'a- mor|pie- ni, oc-|
 A2 F2 D2 d2- | d2 B2 c2 d2 | e2 d2 c2 c2- | cBAG A4 | A4 z2 f2 | f2 f2 f2 d2 | f2 f2 g4- | %16
w: * chi sem- pre|_ di gra- tia|e d'a- mor pie-||ni, per-|do- nin gli al-|tri'oc- chi vo-|
 g4 f2 d2 | e2 d4 c2 | d4 z2 d2 | d2 d2 d2 d2 | d4 f4 | d2 c2 d3 e | f4 z2 f2 | f4 d2 f2- | %24
w: * stro sol|e splen- do-|re, e|se que- sta pa-|ro- la|par che to- *|chi, al|sol il ver'|
 fe d4 cB | c4 z4 | B2 d2 d2 A2 | A2 c3 d e2- | e2 e2 z2 c2 | d2 e2 f2 e2 | c2 FG AB c2 | %31
w: _ ho- no- * *|re,|fac- ci'e- gli chiar'|a no- * *|* i, gior-|no la not- te,|co- me _ _ _ _|
 F2 A3 G E2 | F2 A2 B2 A2 | G2 D2 G3 F | G2 A2 B4 | A8 |] %36
w: fa- te _ vo-|i, gior- no la|not- te co- me|da- te vo-|i?|
V:3
 D4 d4- |"^#""^#" d2 cB c4 | d4 z2 A2 | B4 c4 | A4 A4 | z2 A2 A2 A2 | B2 G2 A4 | F4 G3 F | E4 D4- | %9
w: Di- vi-||ni oc-|chi se-|re- ni,|oc- chi sem-|pre di gra-|tia'e d'a- mor|pie- ni,|
 D4 d4 | B2 G2 G2 A2- | AG G2 A4 | G2 F2 E4 | D4 z2 d2 | d2 d2 c2 B2 | A2 d2 d4- | d4 d2 B2 | %17
w: _ oc-|chi sem- pre di|_ _ gra- tia'e|d'a- mor pie-|ni, per|do- nin gli al-|tri'oc- chi vo-|* stro sol|
 c2 A4 G2 | A4 z2 A2 | A2 A2 A2 A2 | B4 c4 | B2 A2 B4 | c8 | z2 A2 B2 c2 | d3 e f4 | e8 | %26
w: e splen- do-|re, e|se que- sta pa-|ro- la|par che toc-|chi,|al sol il|ver' ho- no-|re,|
 z2 B2 d2 d2 | A2 A2 c4 | B4 z2 e2 | f2 e2 d2 B2 | A2 DE FG A2- | AG F2 E4 | D2 F2 G2 A2 | %33
w: fac- ci'e- gli|chiar' a no|i, gior-|no la not- te,|co- me _ _ _ _|_ fa- te vo-|i, gior- no la|
 _B2 A2 G2 B2 | _B2 A2 G4 |"^#" F8 |] %36
w: not- te co- me|da- te vo-|i?|
V:4
 z4 D,4 | A,8 | D,4 z2 D,2 | G,4 C,4 | D,4 D,4 | z2 D,2 D,2 A,,2 | D,2 E,2 A,,4 | D,4 G,,2 G,,2 | %8
w: Di-|vi-|ni oc-|chi se-|re- ni,|oc- chi sem-|pre di gra-|tia'e d'a- mor|
 A,,2 A,,2 z4 | A,4 F,2 D,2 | G,3 F, E,2 D,2 | C,2 B,,2 A,,4 | C,2 D,2 A,,4 | D,4 z2 D,2 | %14
w: pie- ni,|oc- chi sem-|pre _ _ di|gra- tia e|d'a- mor pie-|ni, per|
 D,2 D,2 F,2 G,2 | D,2 D,2 G,4- | G,4 D,2 G,2 | C,2 D,2 E,4 | D,4 z2 D,2 | D,2 D,2 D,2 D,2 | %20
w: do- nin gli al-|tri'oc- chi vo-|* stro sol|e splen- do-|re e|se que- sta pa-|
 G,4 F,4 | G,2 A,2 G,4 | F,4 F,4 | F,2 F,2 G,2 A,2 | B,4 A,4- | A,4 z2 E,2 | G,2 G,2 D,2 D,2 | %27
w: ro- la|par che toc-|chi, al|sol il ver' ho-|no- re,|_ fac-|ci'e- gli chiar' a|
"^#" F,E,F,G, A,4 | E,4 z2 A,,2 | D,2 C,2 D,2 E,2 | F,3 E, D,2 C,2 | D,4 A,,4 | z2 D,2 G,2 F,2 | %33
w: no- * * * *|i, gior-|no la not- te|co- me fa- te|vo- i,|gior- no la|
"^b" G,2 A,2 B,3 A, | G,2 F,2 G,4 | D,8 |] %36
w: not- te co- me|da- te vo-|i?|

